Origami/64x64/apps/mate-inhibit-applet.svg

<svg width="64" height="64" version="1" xmlns="http://www.w3.org/2000/svg">
 <rect transform="matrix(0,-1,-1,0,0,0)" x="-56" y="-48" width="42" height="32" rx="2.5" ry="2.5" style="opacity:.2"/>
 <rect transform="matrix(0,-1,-1,0,0,0)" x="-55" y="-48" width="42" height="32" rx="2.5" ry="2.5" style="fill:#8e8e8e"/>
 <rect transform="matrix(0,-1,-1,0,0,0)" x="-50" y="-58" width="40" height="52" rx="2.5" ry="2.5" style="opacity:.2"/>
 <rect transform="matrix(0,-1,-1,0,0,0)" x="-49" y="-58" width="40" height="52" rx="2.5" ry="2.5" style="fill:#4f4f4f"/>
 <rect transform="matrix(0,-1,-1,0,0,0)" x="-45" y="-54" width="32" height="44" rx="0" ry="0" style="opacity:.4"/>
 <path d="m8.5 9c-1.385 0-2.5 1.115-2.5 2.5v1c0-1.385 1.115-2.5 2.5-2.5h47c1.385 0 2.5 1.115 2.5 2.5v-1c0-1.385-1.115-2.5-2.5-2.5z" style="fill:#ffffff;opacity:.1"/>
 <rect x="10" y="45" width="44" height="1" style="fill:#ffffff;opacity:.1"/>
 <circle cx="48" cy="45" r="16" style="opacity:.2"/>
 <circle cx="48" cy="44" r="16" style="fill:#3593cd"/>
 <path d="m48 38c-1.939 0.018-3.89 0.445-5.578 1.363-0.673 0.421-1.481 0.964-2.09 1.512-0.958 0.9-1.778 1.95-2.332 3.127 1.519 3.216 4.857 5.574 8.529 5.922 2.409 0.262 4.931-0.139 7.049-1.283 0.673-0.421 1.481-0.964 2.09-1.512 0.958-0.902 1.778-1.952 2.332-3.127-1.518-3.216-4.857-5.574-8.529-5.922-0.488-0.056-0.981-0.08-1.471-0.08zm4e-3 2c2.14-0.047 4.034 1.868 3.994 3.996 0.069 2.353-2.275 4.383-4.592 3.943-2.34-0.274-3.984-2.901-3.215-5.125 0.493-1.636 2.1-2.831 3.815-2.812zm-4e-3 2a2 1.9988 0 0 0 -2 2.002 2 1.9988 0 0 0 2 1.998 2 1.9988 0 0 0 2 -1.998 2 1.9988 0 0 0 -2 -1.996z" style="fill:#ffffff"/>
</svg>

<svg xmlns="http://www.w3.org/2000/svg" width="64" height="64" version="1">
 <rect style="opacity:0.2" width="42" height="32" x="-56" y="-48" rx="2.5" ry="2.5" transform="matrix(0,-1,-1,0,0,0)"/>
 <rect style="fill:#8e8e8e" width="42" height="32" x="-55" y="-48" rx="2.5" ry="2.5" transform="matrix(0,-1,-1,0,0,0)"/>
 <rect style="opacity:0.2" width="40" height="52" x="-50" y="-58" rx="2.5" ry="2.5" transform="matrix(0,-1,-1,0,0,0)"/>
 <rect style="fill:#4f4f4f" width="40" height="52" x="-49" y="-58" rx="2.5" ry="2.5" transform="matrix(0,-1,-1,0,0,0)"/>
 <rect style="opacity:0.4" width="32" height="44" x="-45" y="-54" rx="0" ry="0" transform="matrix(0,-1,-1,0,0,0)"/>
 <path style="opacity:0.1;fill:#ffffff" d="M 8.5,9 C 7.115,9 6,10.115 6,11.5 V 12.5 C 6,11.115 7.115,10 8.5,10 H 55.5 C 56.885,10 58,11.115 58,12.5 V 11.5 C 58,10.115 56.885,9 55.5,9 Z"/>
 <rect style="opacity:0.1;fill:#ffffff" width="44" height="1" x="10" y="45"/>
 <circle style="opacity:0.2" cx="48" cy="45" r="16"/>
 <circle style="fill:#3593cd" cx="48" cy="44" r="16"/>
 <path style="fill:#ffffff" d="M 48,38 C 46.061,38.018 44.11,38.445 42.422,39.363 41.749,39.784 40.941,40.327 40.332,40.875 39.374,41.775 38.554,42.825 38,44.002 39.519,47.218 42.857,49.576 46.529,49.924 48.938,50.186 51.46,49.785 53.578,48.641 54.251,48.22 55.059,47.677 55.668,47.129 56.626,46.227 57.446,45.177 58,44.002 56.482,40.786 53.143,38.428 49.471,38.08 48.983,38.024 48.49,38 48,38 Z M 48.004,40 C 50.144,39.953 52.038,41.868 51.998,43.996 52.067,46.349 49.723,48.379 47.406,47.939 45.066,47.665 43.422,45.038 44.191,42.814 44.684,41.178 46.291,39.983 48.006,40.002 Z M 48,42 A 2,1.9988 0 0 0 46,44.002 2,1.9988 0 0 0 48,46 2,1.9988 0 0 0 50,44.002 2,1.9988 0 0 0 48,42.006 Z"/>
</svg>
